images/logos/clark.svg

<svg height="24" viewBox="0 0 112 24" width="112" xmlns="http://www.w3.org/2000/svg"><path d="m56 40c0-6.7080745 5.2732919-12 12.0559006-12 3.5962733 0 6.931677 1.5465839 9.0372671 4.1552795.3913043.4844721.5217391.8012422.5217391 1.1552795 0 .6708075-.5962733 1.2298137-1.3043478 1.2298137-.4658385 0-.8385093-.1677019-1.1552795-.5590062-1.826087-2.2919255-4.2111801-3.447205-7.0621118-3.447205-5.2732919 0-9.242236 4.0807453-9.242236 9.4658385s3.9689441 9.4658385 9.242236 9.4658385c2.8509317 0 5.2360248-1.1925466 7.0621118-3.447205.3167702-.3913043.7080745-.5590062 1.1552795-.5590062.7080745 0 1.3043478.5590062 1.3043478 1.2298137 0 .3540373-.1490683.6708074-.5217391 1.1552795-2.0310559 2.6086956-5.4223602 4.1552795-9.0372671 4.1552795-6.7826087-.0186335-12.0559006-5.2919255-12.0559006-12zm26.6645963 10.5093168v-20.7018634c0-.8012422.5590062-1.4347826 1.378882-1.4347826.7826087 0 1.3788819.6335404 1.3788819 1.4347826v19.6956522h9.8757764c.7453417 0 1.2670808.5217391 1.2670808 1.2298137 0 .6708074-.5217391 1.2298136-1.2670808 1.2298136h-11.1801242c-.8571428 0-1.4534161-.6335404-1.4534161-1.4534161zm62.5155277.242236c0 .6708074-.559006 1.2298137-1.304348 1.2298137-.428571 0-.801242-.2422361-1.192546-.7453417l-7.006211-9.3913043h-5.273292v8.7204969c0 .7826087-.596274 1.3975155-1.378882 1.3975155-.801243 0-1.378882-.6335404-1.378882-1.3975155v-20.757764c0-.7826087.596273-1.3975155 1.397515-1.3975155h6.745342c4.434782 0 7.416149 2.7018633 7.416149 6.7080745 0 3.0931677-1.751553 5.4223603-4.602485 6.3354037l6.093168 8.273292c.31677.3354037.484472.689441.484472 1.0248447zm-14.757764-11.3478261h5.310559c2.925466 0 4.677019-1.621118 4.677019-4.2484472 0-2.6086956-1.78882-4.2857143-4.677019-4.2857143h-5.310559zm22.751553-9.9503106v21.0931678c0 .8012422-.596273 1.4347826-1.378882 1.4347826-.801242 0-1.378882-.6335404-1.378882-1.4347826v-21.0931678c0-.8012422.559006-1.4347826 1.378882-1.4347826.782609-.0186335 1.378882.6149069 1.378882 1.4347826zm14.627329 21.2981367c0 .6708074-.559006 1.2298137-1.267081 1.2298137-.354037 0-.708074-.1677019-1.099378-.5590063l-11.086957-11.3291925c-.242236-.2795031-.428571-.5962733-.428571-.9503106 0-.3540372.167702-.6708074.465838-.9875776l10.062112-9.5962733c.428571-.3913043.708075-.5590062 1.062112-.5590062.708074 0 1.267081.5590062 1.267081 1.2298137 0 .3913043-.167702.7080745-.596274 1.0993788l-9.204969 8.8322982 10.304348 10.5838509c.372671.3167702.521739.5962733.521739 1.0062112zm-45.503105-.9689441-8.906833-20.8322981c-.279503-.6335404-.708074-.9503106-1.304347-.9503106-.596274 0-1.024845.3167702-1.304348.9503106l-8.906833 20.8136646c-.149068.3540372-.204969.6335403-.204969.8757764 0 .7080745.596274 1.3416149 1.341615 1.3416149.596274 0 1.062112-.3540373 1.304348-.9130435l1.695652-4.0434783.055901-.1490683 1.024845-2.4596273 4.993789-12.2981367 4.84472 12.3167702 1.062112 2.4596273 1.863354 4.1925466c.279503.5590062.708074.9130435 1.341615.9130435.708074 0 1.341615-.6335404 1.341615-1.3416149 0-.242236-.074534-.5403727-.242236-.8757764z" transform="translate(-56 -28)"/></svg>

<?xml version="1.0" encoding="UTF-8"?>
<svg width="112px" height="24px" viewBox="0 0 112 24" version="1.1" xmlns="http://www.w3.org/2000/svg" xmlns:xlink="http://www.w3.org/1999/xlink">
    <!-- Generator: Sketch 50.2 (55047) - http://www.bohemiancoding.com/sketch -->
    <title>clark</title>
    <desc>Created with Sketch.</desc>
    <defs></defs>
    <g id="Desktop" stroke="none" stroke-width="1" fill="none" fill-rule="evenodd">
        <g id="Work" transform="translate(-264.000000, -2428.000000)" fill="#000000" fill-rule="nonzero">
            <g id="Clients" transform="translate(80.000000, 1824.000000)">
                <g id="logos" transform="translate(128.000000, 448.000000)">
                    <g id="5" transform="translate(0.000000, 128.000000)">
                        <path d="M56,40 C56,33.2919255 61.2732919,28 68.0559006,28 C71.6521739,28 74.9875776,29.5465839 77.0931677,32.1552795 C77.484472,32.6397516 77.6149068,32.9565217 77.6149068,33.310559 C77.6149068,33.9813665 77.0186335,34.5403727 76.310559,34.5403727 C75.8447205,34.5403727 75.4720497,34.3726708 75.1552795,33.9813665 C73.3291925,31.689441 70.9440994,30.5341615 68.0931677,30.5341615 C62.8198758,30.5341615 58.8509317,34.6149068 58.8509317,40 C58.8509317,45.3850932 62.8198758,49.4658385 68.0931677,49.4658385 C70.9440994,49.4658385 73.3291925,48.2732919 75.1552795,46.0186335 C75.4720497,45.6273292 75.863354,45.4596273 76.310559,45.4596273 C77.0186335,45.4596273 77.6149068,46.0186335 77.6149068,46.689441 C77.6149068,47.0434783 77.4658385,47.3602484 77.0931677,47.8447205 C75.0621118,50.4534161 71.6708075,52 68.0559006,52 C61.2732919,51.9813665 56,46.7080745 56,40 Z M82.6645963,50.5093168 L82.6645963,29.8074534 C82.6645963,29.0062112 83.2236025,28.3726708 84.0434783,28.3726708 C84.826087,28.3726708 85.4223602,29.0062112 85.4223602,29.8074534 L85.4223602,49.5031056 L95.2981366,49.5031056 C96.0434783,49.5031056 96.5652174,50.0248447 96.5652174,50.7329193 C96.5652174,51.4037267 96.0434783,51.9627329 95.2981366,51.9627329 L84.1180124,51.9627329 C83.2608696,51.9627329 82.6645963,51.3291925 82.6645963,50.5093168 Z M145.180124,50.7515528 C145.180124,51.4223602 144.621118,51.9813665 143.875776,51.9813665 C143.447205,51.9813665 143.074534,51.7391304 142.68323,51.2360248 L135.677019,41.8447205 L130.403727,41.8447205 L130.403727,50.5652174 C130.403727,51.3478261 129.807453,51.9627329 129.024845,51.9627329 C128.223602,51.9627329 127.645963,51.3291925 127.645963,50.5652174 L127.645963,29.8074534 C127.645963,29.0248447 128.242236,28.4099379 129.043478,28.4099379 L135.78882,28.4099379 C140.223602,28.4099379 143.204969,31.1118012 143.204969,35.1180124 C143.204969,38.2111801 141.453416,40.5403727 138.602484,41.4534161 L144.695652,49.7267081 C145.012422,50.0621118 145.180124,50.4161491 145.180124,50.7515528 Z M130.42236,39.4037267 L135.732919,39.4037267 C138.658385,39.4037267 140.409938,37.7826087 140.409938,35.1552795 C140.409938,32.5465839 138.621118,30.8695652 135.732919,30.8695652 L130.42236,30.8695652 L130.42236,39.4037267 Z M153.173913,29.4534161 L153.173913,50.5465839 C153.173913,51.3478261 152.57764,51.9813665 151.795031,51.9813665 C150.993789,51.9813665 150.416149,51.3478261 150.416149,50.5465839 L150.416149,29.4534161 C150.416149,28.6521739 150.975155,28.0186335 151.795031,28.0186335 C152.57764,28 153.173913,28.6335404 153.173913,29.4534161 Z M167.801242,50.7515528 C167.801242,51.4223602 167.242236,51.9813665 166.534161,51.9813665 C166.180124,51.9813665 165.826087,51.8136646 165.434783,51.4223602 L154.347826,40.0931677 C154.10559,39.8136646 153.919255,39.4968944 153.919255,39.1428571 C153.919255,38.7888199 154.086957,38.4720497 154.385093,38.1552795 L164.447205,28.5590062 C164.875776,28.1677019 165.15528,28 165.509317,28 C166.217391,28 166.776398,28.5590062 166.776398,29.2298137 C166.776398,29.621118 166.608696,29.9378882 166.180124,30.3291925 L156.975155,39.1614907 L167.279503,49.7453416 C167.652174,50.0621118 167.801242,50.3416149 167.801242,50.7515528 Z M122.298137,49.7826087 L113.391304,28.9503106 C113.111801,28.3167702 112.68323,28 112.086957,28 C111.490683,28 111.062112,28.3167702 110.782609,28.9503106 L101.875776,49.7639752 C101.726708,50.1180124 101.670807,50.3975155 101.670807,50.6397516 C101.670807,51.3478261 102.267081,51.9813665 103.012422,51.9813665 C103.608696,51.9813665 104.074534,51.6273292 104.31677,51.068323 L106.012422,47.0248447 L106.068323,46.8757764 L107.093168,44.4161491 L112.086957,32.1180124 L116.931677,44.4347826 L117.993789,46.8944099 L119.857143,51.0869565 C120.136646,51.6459627 120.565217,52 121.198758,52 C121.906832,52 122.540373,51.3664596 122.540373,50.6583851 C122.540373,50.4161491 122.465839,50.1180124 122.298137,49.7826087 Z" id="clark"></path>
                    </g>
                </g>
            </g>
        </g>
    </g>
</svg>
